icons/weight-lifting.svg

<?xml version="1.0" encoding="UTF-8"?><svg id="uuid-90444b55-ef37-4b06-bd62-703573240a52" xmlns="http://www.w3.org/2000/svg" viewBox="0 0 50 50"><path d="M46.92,19.91h-.33v-4.84c0-.28-.22-.5-.5-.5h-4.1v-2.74c0-.28-.22-.5-.5-.5h-6.71c-.28,0-.5,.22-.5,.5v8.07h-3.26c-.16-.25-.35-.5-.59-.73-.02-.02-.04-.03-.06-.04-.31-.27-.69-.41-1.1-.41-.7,0-1.3,.43-1.56,1.03v-1.99c0-.79-.64-1.43-1.43-1.43h-.29c-.36,0-.68,.14-.93,.35-.25-.22-.57-.35-.93-.35h-.29c-.36,0-.68,.14-.93,.35-.25-.22-.57-.35-.93-.35h-.29c-.36,0-.68,.14-.93,.35-.25-.22-.57-.35-.93-.35h-.29c-.79,0-1.43,.64-1.43,1.43v2.15h-2.42V11.84c0-.28-.22-.5-.5-.5h-6.71c-.28,0-.5,.22-.5,.5v2.74H3.9c-.28,0-.5,.22-.5,.5v4.84h-.38c-1.61,0-2.92,1.31-2.92,2.92v.19c0,1.61,1.31,2.92,2.92,2.92h.38v4.84c0,.28,.22,.5,.5,.5h4.1v2.74c0,.28,.22,.5,.5,.5h6.71c.28,0,.5-.22,.5-.5v-8.07h2.42v1.34c0,1.22,.99,2.21,2.21,2.21h.81v8.67c0,.28,.22,.5,.5,.5h6.32c.28,0,.5-.22,.5-.5v-8.73c.46-.07,.97-.23,1.44-.58,.04-.03,1.08-.69,1.5-2.44,.03-.12,.06-.28,.08-.48h2.79v8.07c0,.28,.22,.5,.5,.5h6.71c.28,0,.5-.22,.5-.5v-2.74h4.1c.28,0,.5-.22,.5-.5v-4.84h.33c1.64,0,2.98-1.34,2.98-3.06s-1.33-2.98-2.98-2.98ZM3.4,24.94h-.38c-1.06,0-1.92-.86-1.92-1.92v-.19c0-1.06,.86-1.92,1.92-1.92h.38v4.03Zm4.6,5.34h-3.6V15.57h3.6v14.71Zm6.71-10.37v13.61h-5.71V12.34h5.71v7.57Zm10.85-2.15c0-.24,.19-.43,.43-.43h.29c.24,0,.43,.19,.43,.43v3.99c0,.24-.19,.43-.43,.43h-.29c-.24,0-.43-.19-.43-.43v-3.99Zm-2.14,0c0-.24,.19-.43,.43-.43h.29c.24,0,.43,.19,.43,.43v3.99c0,.24-.19,.43-.43,.43h-.29c-.24,0-.43-.19-.43-.43v-3.99Zm-2.14,0c0-.24,.19-.43,.43-.43h.29c.24,0,.43,.19,.43,.43v3.99c0,.24-.19,.43-.43,.43h-.29c-.24,0-.43-.19-.43-.43v-3.99Zm-2.14,0c0-.24,.19-.43,.43-.43h.29c.24,0,.43,.19,.43,.43v3.99c0,.24-.19,.43-.43,.43h-.29c-.24,0-.43-.19-.43-.43v-3.99Zm-.48,7.18h-2.94v-4.03h2.42v.84c0,.79,.64,1.43,1.43,1.43h.29c.36,0,.68-.14,.93-.35,.25,.22,.57,.35,.93,.35h.29c.36,0,.68-.14,.93-.35,.25,.22,.57,.35,.93,.35h.29c.36,0,.68-.14,.93-.35,.25,.22,.57,.35,.93,.35h.29c.79,0,1.43-.64,1.43-1.43v-.71c.13,.32,.34,.6,.64,.79v3.12h-9.7Zm8.82,12.72h-5.32v-8.17h5.32v8.17Zm3.02-11.91c0,.19-.03,.29-.06,.42l-.03,.1c-.3,1.24-1.01,1.72-1.06,1.76-.56,.41-1.19,.47-1.62,.46h-7.37c-.67,0-1.21-.54-1.21-1.21v-1.34h9.72c.28,0,.5-.22,.5-.5v-3.93c0-.21-.13-.4-.32-.47-.27-.1-.45-.35-.45-.64,0-.55,.74-.9,1.16-.5,.02,.02,.03,.03,.05,.04,.28,.27,.48,.57,.59,.9h0c.08,.23,.12,.44,.12,.65v4.25Zm3.78-.81h-2.78v-3.44c0-.2-.03-.4-.07-.6h2.85v4.03Zm6.71-9.87v18.44h-5.71V12.34h5.71v2.74Zm4.6,5.34v9.87h-3.6V15.57h3.6v4.84Zm1.33,4.53h-.33v-4.03h.33c1.09,0,1.98,.89,1.98,2.06,0,1.09-.89,1.98-1.98,1.98Z"/></svg>

<svg id="ba765b54-f2e4-4c0e-aff5-cb4344bef7a6" data-name="ICONS" xmlns="http://www.w3.org/2000/svg" viewBox="0 0 50 50"><path d="M46.92,19.91H46.6V15.07a.51.51,0,0,0-.5-.5H42V11.84a.5.5,0,0,0-.5-.5H34.78a.5.5,0,0,0-.5.5v8.07H31a3.57,3.57,0,0,0-.59-.73l-.06-.05a1.65,1.65,0,0,0-1.1-.41,1.68,1.68,0,0,0-1.55,1v-2a1.43,1.43,0,0,0-1.43-1.43H26a1.44,1.44,0,0,0-.93.35,1.44,1.44,0,0,0-.92-.35h-.29a1.44,1.44,0,0,0-.93.35,1.44,1.44,0,0,0-.93-.35h-.29a1.44,1.44,0,0,0-.92.35,1.46,1.46,0,0,0-.93-.35h-.29a1.43,1.43,0,0,0-1.43,1.43v2.15H15.72V11.84a.5.5,0,0,0-.5-.5H8.51a.5.5,0,0,0-.5.5v2.73H3.9a.51.51,0,0,0-.5.5v4.84H3A2.92,2.92,0,0,0,.1,22.83V23A2.92,2.92,0,0,0,3,25.94H3.4v4.84a.5.5,0,0,0,.5.5H8V34a.5.5,0,0,0,.5.5h6.71a.5.5,0,0,0,.5-.5V25.94h2.42v1.34a2.22,2.22,0,0,0,2.22,2.21h.8v8.67a.5.5,0,0,0,.5.5H28a.5.5,0,0,0,.5-.5V29.44a3.42,3.42,0,0,0,1.44-.58,4.05,4.05,0,0,0,1.49-2.44,3.39,3.39,0,0,0,.08-.48h2.79V34a.5.5,0,0,0,.5.5h6.71A.5.5,0,0,0,42,34V31.28H46.1a.5.5,0,0,0,.5-.5V25.94h.32a3,3,0,0,0,0-6Zm-43.52,5H3A1.92,1.92,0,0,1,1.1,23v-.19A1.92,1.92,0,0,1,3,20.91H3.4ZM8,30.28H4.4V15.57H8Zm6.71-10.37v13.6H9V12.34h5.71Zm10.85-2.15a.43.43,0,0,1,.43-.43h.29a.43.43,0,0,1,.43.43v4a.43.43,0,0,1-.43.42H26a.42.42,0,0,1-.43-.42Zm-2.14,0a.43.43,0,0,1,.43-.43h.29a.42.42,0,0,1,.42.43v4a.42.42,0,0,1-.42.42h-.29a.42.42,0,0,1-.43-.42Zm-2.14,0a.42.42,0,0,1,.42-.43H22a.43.43,0,0,1,.43.43v4a.42.42,0,0,1-.43.42h-.29a.42.42,0,0,1-.42-.42Zm-2.15,0a.43.43,0,0,1,.43-.43h.29a.43.43,0,0,1,.43.43v4a.43.43,0,0,1-.43.42h-.29a.42.42,0,0,1-.43-.42Zm-.48,7.18H15.72v-4h2.42v.84a1.43,1.43,0,0,0,1.43,1.42h.29a1.41,1.41,0,0,0,.93-.35,1.38,1.38,0,0,0,.92.35H22a1.39,1.39,0,0,0,.93-.35,1.39,1.39,0,0,0,.93.35h.29a1.38,1.38,0,0,0,.92-.35,1.39,1.39,0,0,0,.93.35h.29a1.43,1.43,0,0,0,1.43-1.42V21a1.65,1.65,0,0,0,.64.79v3.12Zm8.82,12.72H22.16V29.49h5.32Zm3-11.91a1.25,1.25,0,0,1-.06.42l0,.1A2.9,2.9,0,0,1,29.35,28a2.59,2.59,0,0,1-1.62.46H20.36a1.22,1.22,0,0,1-1.22-1.21V25.94h9.72a.5.5,0,0,0,.5-.5V21.52a.5.5,0,0,0-.33-.47.69.69,0,0,1-.45-.64.71.71,0,0,1,1.16-.5l.05,0a2.24,2.24,0,0,1,.59.9h0a1.76,1.76,0,0,1,.12.65Zm3.78-.81H31.5V21.5a3,3,0,0,0-.07-.59h2.85ZM41,15.07V33.51H35.28V12.34H41Zm4.61,5.34v9.87H42V15.57H45.6Zm1.32,4.53H46.6v-4h.32a2,2,0,0,1,0,4Z"/></svg>
